X:1
T:BWV253 Soprano
C:Music21
L:1/4
M:4/4
K:A
V:1 name="Melody" clef=treble
%%MIDI program 1 40
 c/d/ e c A | B c d c | B A A3/2 B/ | c c B/A/ B | A3  c | B c A F | B A B c | A A A3/2 B/ | c c B/A/ B | A3 |]
V:2 name="Chords" clef=treble
%%MIDI program 2 0
[A,EA] [A,Ec] [A,CE] [A,CE] | [DFA] [EAc] [DFA] [EAc] | [EGB] [CEA] [CEA] [EGB] | [EAc] [DFA] [EGB] [EGB] | [CEA] [CEA] [EGB] [EGB] | [EGB] [EAc] [CEA] [DFA] | [EGB] [CEA] [EGB] [EAc] | [CEA] [CEA] [CEA] [EGB] | [EAc] [DFA] [EGB] [EGB] | [CEA] [CEA] [A,EA] |]

================================================================================
ITERATION 3 — REVISE
================================================================================

--- Harmonizer reasoning ---
Key:     A major
Phrases: bars 1-5, bars 6-10
Cadences: bar 5 = half cadence on V; bar 10 = authentic cadence I
Arc:     I–IV–V–I–V / V–I–V–I–I
Notes:   Fix m2 EAc→EGB (true V); smooth voice leading throughout

--- ABC ---
